src/raw/house-bed/icon_24.svg

<svg width="24" height="24" viewBox="0 0 24 24" fill="none" xmlns="http://www.w3.org/2000/svg">
<path d="M0.75 8.25L12 1L23.2226 8.23233" stroke="#71717A" stroke-width="1.5" stroke-linecap="round" stroke-linejoin="round"/>
<path d="M2.25 18.75H21.75V23.25H2.25" stroke="#71717A" stroke-width="1.5" stroke-linecap="round" stroke-linejoin="round"/>
<path d="M2.25 18.75V14.25H5.25C6.04565 14.25 6.80871 14.5661 7.37132 15.1287C7.93393 15.6913 8.25 16.4544 8.25 17.25V18.75" stroke="#71717A" stroke-width="1.5" stroke-linecap="round" stroke-linejoin="round"/>
<path d="M9 18.75L10.006 16.738C10.3797 15.9904 10.9542 15.3617 11.6651 14.9222C12.376 14.4828 13.1952 14.25 14.031 14.25H18.75C19.5456 14.25 20.3087 14.5661 20.8713 15.1287C21.4339 15.6913 21.75 16.4544 21.75 17.25V18.75" stroke="#71717A" stroke-width="1.5" stroke-linecap="round" stroke-linejoin="round"/>
<path d="M2.25 23.25V12.75" stroke="#71717A" stroke-width="1.5" stroke-linecap="round" stroke-linejoin="round"/>
</svg>

<svg xmlns="http://www.w3.org/2000/svg" width="24" height="24" fill="none" viewBox="0 0 24 24">
  <path stroke="#3F3F46" stroke-linecap="round" stroke-linejoin="round" stroke-width="1.5"
    d="M.75 8.25 12 1l11.223 7.232M2.25 18.75h19.5v4.5H2.25M2.25 18.75v-4.5h3a3 3 0 0 1 3 3v1.5M9 18.75l1.006-2.012a4.5 4.5 0 0 1 4.025-2.488h4.719a3 3 0 0 1 3 3v1.5M2.25 23.25v-10.5" />
</svg>
